_includes/icons/ios-nef.svg

<svg fill="#666" height="50" viewBox="0 0 50 50" width="50" xmlns="http://www.w3.org/2000/svg"><path d="m7 2v46h36v-32.589844l-13.816406-13.410156zm2 2h19v13h13v29h-32zm21 1.578125 9.707031 9.421875h-9.707031zm-9.621094 17.976563v2.234375c0 1.859375.136719 3.617187.195313 4.679687h-.027344c-.285156-.867187-.78125-2.171875-1.082031-2.953125l-1.558594-3.957031h-1.800781v10.105469h1.722656v-2.277344c0-2.027344-.070312-3.585938-.117187-4.605469h.027343c.226563.914063.691407 2.1875 1.023438 3.042969l1.542969 3.839844h1.800781v-10.109375zm3.464844.003906v10.109375h4.578125v-1.714844h-2.609375v-2.726562h2.308594v-1.632813h-2.308594v-2.328125h2.425781v-1.707031zm5.910156 0v10.109375h1.964844v-4.171875h2.28125v-1.636719h-2.28125v-2.59375h2.433594v-1.707031z"/></svg>

<svg xmlns="http://www.w3.org/2000/svg" viewBox="0 0 50 50" width="50" height="50" fill="#666"><path d="M 7 2 L 7 48 L 43 48 L 43 15.410156 L 29.183594 2 Z M 9 4 L 28 4 L 28 17 L 41 17 L 41 46 L 9 46 Z M 30 5.578125 L 39.707031 15 L 30 15 Z M 20.378906 23.554688 L 20.378906 25.789063 C 20.378906 27.648438 20.515625 29.40625 20.574219 30.46875 L 20.546875 30.46875 C 20.261719 29.601563 19.765625 28.296875 19.464844 27.515625 L 17.90625 23.558594 L 16.105469 23.558594 L 16.105469 33.664063 L 17.828125 33.664063 L 17.828125 31.386719 C 17.828125 29.359375 17.757813 27.800781 17.710938 26.78125 L 17.738281 26.78125 C 17.964844 27.695313 18.429688 28.96875 18.761719 29.824219 L 20.304688 33.664063 L 22.105469 33.664063 L 22.105469 23.554688 Z M 23.84375 23.558594 L 23.84375 33.667969 L 28.421875 33.667969 L 28.421875 31.953125 L 25.8125 31.953125 L 25.8125 29.226563 L 28.121094 29.226563 L 28.121094 27.59375 L 25.8125 27.59375 L 25.8125 25.265625 L 28.238281 25.265625 L 28.238281 23.558594 Z M 29.753906 23.558594 L 29.753906 33.667969 L 31.71875 33.667969 L 31.71875 29.496094 L 34 29.496094 L 34 27.859375 L 31.71875 27.859375 L 31.71875 25.265625 L 34.152344 25.265625 L 34.152344 23.558594 Z"/></svg>
